X:1000
T:The Sun from the East
C:Henry Livingston, before 1787
S:Colin Hume's website,  colinhume.com  - chords can also be printed below the stave.
N:See https://en.wikipedia.org/wiki/Appoggiatura for my treatment of the grace notes.
%%MIDI bassprog 69      % English Horn
%%MIDI chordprog 74     % Recorder
%%MIDI program 74       % Recorder
Q:1/4=120
M:3/4
R:Waltz
L:1/8
K:C
G2 | "C"c2G2c2 | e4 dc | "G"d2G2d2 | f4 ed |\
"C"e2 cd ef | g2 fe dc | "G"dB G2F2 | "C"F2 E2 G2 |
"C"c2e2dc | "G"ed cB AG | "C"c3e dc | "G"c2B2 GG |\
"F"ABc2 BA | "G"Bc d2 "D7"e^f | "G"g2 dc BA | G4 dd |
"G"d2 cB AG | "G7"d3e f2 | "Am"e2 dc BA | "E7"e4 e2 |\
"Am"a2 ed cB | "F"cB AB cA | "G"de fe dc | "G7"BA GA BG |
"C"cB cd ef | g3 f e2 | "G7"f2e2d2 | "C"c4 |]

